X: 37732
T: Soldier's Joy
R: hornpipe
M: 4/4
K: Dmajor
|:FG|AFDF AFDF|A2 d2 d2 cB|AFDF AFDF|G2E2 E2 FG|
AFDF AFDF|A2 d2 d2 de|fafd egec|d2f2d2:|
|:de|fdAd fagf|edcd efge|fdAd fgaf|edcB A2 de|
fdAd fagf|edcd efge|fafd egec|d2f2 d2:|

